X:4
T:An Geamhramh
Z:Jack Campin, http://www.campin.me.uk/
B:Captain Eoghan Anderson: Measan Milis as an Lios (The Sweet Lapdog of Lismore), 1925
F:http://www.campin.me.uk/Music/Lismore.abc
I:last edit 17-12-2013
M:4/4
L:1/4
Q:1/4=100
K:DMin
D>D FF|dc  A>A|cd cA |G/F/C D2 |
D>D FD|C>C AG |Ac d>G|G>F   F2 |
c>c cA|cd  fc |dc AF |G/F/D C2 |
D>D FD|CD  FG |Ac A>G|FF    D2|]

